X:42
T:The Banshee                                                                                       
M:4/4                                                                                               
P:2(AA),BB                                                                                          
L:1/8                                                                                               
K:G                                                                                                 
G3 D ED[DB,]D|GFGB d2 Bd|eged BAGA|BAGE ED D2 :|                                                    
|: eaag egge|dBBA B3 d|eB B2 egfg|eBBA B3 d|                                                        
eaag egge|dBBA B3 d|eged BAGA| BAGE ED D2 :|
